X:0669
T:Lady Charlotte Bruce's Favourite.
M:6/8
L:1/8
Q:3/8=104
I: :: ||
Z:Jack Campin * www.campin.me.uk * 2009
K:G
c|B2   d (B/c/d).B|Tc2e A2e|B2c dBG|F2G A2c |B2d   (B/c/d).B|Tc2d  ABc |(dB).G (cA).F|G3 G2:|
g|f/g/af  g2     d|Te2f g2a|aga b2g|f2g a2b |f/g/af g2     d| e2c  Bdg | dBG    cAF  |G3 G2
g|f/g/af  g2     d| e2f g2b|aga b2g|f2g abc'|bgd   Te>fg    | dcB Tc>de| dBG    cAF  |G3 G2|]
<end>
<start>
